imgsrc/donate.svg

<svg xmlns="http://www.w3.org/2000/svg" width="32" height="32" version="1">
 <g fill="#c2352a" transform="matrix(.063443 0 0 .068968 2 .78072)">
  <g>
   <path d="m314.02 17.679c-36.879 0-70.09 17.27-93.344 43.499-23.26-26.229-56.47-43.499-93.35-43.499-70.322 0-127.33 59.675-127.33 133.29 0 19.779 3.338 38.813 9.184 56.989 0 0 5.301 16.4 9.997 25.428 53.671 115.43 201.49 190.28 201.49 190.28s147.82-74.852 201.49-190.28 6.925-15.38 9.997-25.428c5.582-18.26 9.184-37.21 9.184-56.989 0-73.615-57.008-133.29-127.33-133.29z"/>
  </g>
 </g>
 <g fill="#fff" transform="matrix(.063443 0 0 .068968 2 .78072)">
  <g>
   <path opacity=".2" d="m10.078 2c-4.4612 0-8.078 4.1163-8.078 9.193 0 0.179 0.0124 0.355 0.0195 0.532 0.2155-4.8585 3.7362-8.725 8.0585-8.725 2.34 0 4.447 1.191 5.922 3 1.475-1.809 3.582-3 5.922-3 4.318 0 7.835 3.8592 8.057 8.711 0.007-0.173 0.021-0.343 0.021-0.518 0-5.0767-3.617-9.193-8.078-9.193-2.34 0-4.447 1.191-5.922 3-1.475-1.809-3.582-3-5.922-3z" transform="matrix(15.762 0 0 14.5 -31.525 -11.32)"/>
  </g>
 </g>
 <g transform="matrix(.063443 0 0 .068968 2 1.7796)">
  <g>
   <path opacity=".2" d="m29.979 10.711c-0.05 1.177-0.252 2.314-0.561 3.412-0.195 0.693-0.635 1.754-0.635 1.754-3.405 7.961-12.783 13.123-12.783 13.123s-9.3782-5.162-12.783-13.123c-0.2981-0.623-0.635-1.754-0.635-1.754-0.3223-1.089-0.515-2.225-0.5625-3.398-0.0069 0.156-0.0195 0.31-0.0195 0.468 0 1.364 0.2111 2.676 0.582 3.93 0 0 0.3369 1.131 0.6348 1.754 3.405 7.961 12.783 13.123 12.783 13.123s9.378-5.162 12.783-13.123 0.44-1.061 0.635-1.754c0.354-1.259 0.582-2.566 0.582-3.93 0-0.162-0.014-0.322-0.021-0.482z" transform="matrix(15.762,0,0,14.5,-31.525,-11.32)"/>
  </g>
 </g>
</svg>

<?xml version="1.0" encoding="UTF-8" standalone="no"?>
<!-- Created with Inkscape (http://www.inkscape.org/) -->

<svg
   xmlns:dc="http://purl.org/dc/elements/1.1/"
   xmlns:cc="http://creativecommons.org/ns#"
   xmlns:rdf="http://www.w3.org/1999/02/22-rdf-syntax-ns#"
   xmlns:svg="http://www.w3.org/2000/svg"
   xmlns="http://www.w3.org/2000/svg"
   xmlns:sodipodi="http://sodipodi.sourceforge.net/DTD/sodipodi-0.dtd"
   xmlns:inkscape="http://www.inkscape.org/namespaces/inkscape"
   width="128"
   height="128"
   viewBox="0 0 128 128"
   id="svg2"
   version="1.1"
   inkscape:version="0.92.2 5c3e80d, 2017-08-06"
   sodipodi:docname="donate.svg">
  <defs
     id="defs4" />
  <sodipodi:namedview
     id="base"
     pagecolor="#ffffff"
     bordercolor="#666666"
     borderopacity="1.0"
     inkscape:pageopacity="0.0"
     inkscape:pageshadow="2"
     inkscape:zoom="2.52183"
     inkscape:cx="80.862692"
     inkscape:cy="64.179354"
     inkscape:document-units="px"
     inkscape:current-layer="layer1"
     showgrid="false"
     units="px"
     showguides="true"
     inkscape:guide-bbox="true"
     inkscape:window-width="1366"
     inkscape:window-height="694"
     inkscape:window-x="0"
     inkscape:window-y="48"
     inkscape:window-maximized="1">
    <inkscape:grid
       type="xygrid"
       id="grid4136"
       empspacing="4" />
    <sodipodi:guide
       position="8,140"
       orientation="1,0"
       id="guide4138"
       inkscape:label="Margin Left"
       inkscape:color="rgb(0,0,255)"
       inkscape:locked="false" />
    <sodipodi:guide
       position="120,140"
       orientation="1,0"
       id="guide4140"
       inkscape:label="Margin Right"
       inkscape:color="rgb(0,0,255)"
       inkscape:locked="false" />
    <sodipodi:guide
       position="-20,120"
       orientation="0,1"
       id="guide4142"
       inkscape:label="Margin Top"
       inkscape:color="rgb(0,0,255)"
       inkscape:locked="false" />
    <sodipodi:guide
       position="-16,8"
       orientation="0,1"
       id="guide4144"
       inkscape:label="Margin Bottom"
       inkscape:color="rgb(0,0,255)"
       inkscape:locked="false" />
    <sodipodi:guide
       position="8,8"
       orientation="-0.70710678,0.70710678"
       id="guide4146"
       inkscape:locked="false" />
    <sodipodi:guide
       position="72,56"
       orientation="0.70710678,0.70710678"
       id="guide4148"
       inkscape:locked="false" />
    <sodipodi:guide
       position="20,140"
       orientation="1,0"
       id="guide4150"
       inkscape:label="Rectangle Left"
       inkscape:color="rgb(0,0,255)"
       inkscape:locked="false" />
    <sodipodi:guide
       position="108,140"
       orientation="1,0"
       id="guide4152"
       inkscape:label="Rectangle Right"
       inkscape:color="rgb(0,0,255)"
       inkscape:locked="false" />
    <sodipodi:guide
       position="-20,116"
       orientation="0,1"
       id="guide4154"
       inkscape:label="Shadow Top"
       inkscape:color="rgb(0,0,255)"
       inkscape:locked="false" />
    <sodipodi:guide
       position="-16,12"
       orientation="0,1"
       id="guide4156"
       inkscape:label="Shadow Bottom"
       inkscape:color="rgb(0,0,255)"
       inkscape:locked="false" />
    <sodipodi:guide
       position="-20,104"
       orientation="0,1"
       id="guide4158"
       inkscape:label="Rectangle Top"
       inkscape:color="rgb(0,0,255)"
       inkscape:locked="false" />
    <sodipodi:guide
       position="-16,24"
       orientation="0,1"
       id="guide4160"
       inkscape:label="Rectangle Bottom"
       inkscape:color="rgb(0,0,255)"
       inkscape:locked="false" />
  </sodipodi:namedview>
  <metadata
     id="metadata7">
    <rdf:RDF>
      <cc:Work
         rdf:about="">
        <dc:format>image/svg+xml</dc:format>
        <dc:type
           rdf:resource="http://purl.org/dc/dcmitype/StillImage" />
        <dc:title></dc:title>
      </cc:Work>
    </rdf:RDF>
  </metadata>
  <g
     inkscape:label="Layer 1"
     inkscape:groupmode="layer"
     id="layer1"
     transform="translate(0,-924.36216)">
    <g
       id="g859"
       transform="translate(0,-2.434475)">
      <g
         style="fill:#c2352a"
         id="g6"
         transform="matrix(0.253772,0,0,0.275872,7.1428854,927.91958)">
        <g
           id="g4">
          <path
             inkscape:connector-curvature="0"
             id="path2"
             d="m 314.02,17.679 c -36.879,0 -70.09,17.27 -93.344,43.499 -23.26,-26.229 -56.47,-43.499 -93.35,-43.499 -70.322,0 -127.33,59.675 -127.33,133.29 0,19.779 3.338,38.813 9.184,56.989 0,0 5.301,16.4 9.997,25.428 53.671,115.43 201.49,190.28 201.49,190.28 0,0 147.82,-74.852 201.49,-190.28 53.67,-115.428 6.925,-15.38 9.997,-25.428 5.582,-18.26 9.184,-37.21 9.184,-56.989 0,-73.615 -57.008,-133.29 -127.33,-133.29 z" />
        </g>
      </g>
      <g
         style="fill:#ffffff"
         id="g12"
         transform="matrix(0.253772,0,0,0.275872,8.0008941,927.91958)">
        <g
           id="g10">
          <path
             style="opacity:0.2"
             inkscape:connector-curvature="0"
             id="path8"
             transform="matrix(15.762,0,0,14.5,-31.525,-11.32)"
             d="M 10.078,2 C 5.6168,2 2,6.1163 2,11.193 2,11.372 2.0124,11.548 2.0195,11.725 2.235,6.8665 5.7557,3 10.078,3 12.418,3 14.525,4.191 16,6 17.475,4.191 19.582,3 21.922,3 26.24,3 29.757,6.8592 29.979,11.711 29.986,11.538 30,11.368 30,11.193 30,6.1163 26.383,2 21.922,2 19.582,2 17.475,3.191 16,5 14.525,3.191 12.418,2 10.078,2 Z" />
        </g>
      </g>
      <g
         id="g18"
         transform="matrix(0.253772,0,0,0.275872,7.1430667,931.9151)">
        <g
           id="g16">
          <path
             style="opacity:0.2"
             inkscape:connector-curvature="0"
             id="path14"
             transform="matrix(15.762,0,0,14.5,-31.525,-11.32)"
             d="m 29.979,10.711 c -0.05,1.177 -0.252,2.314 -0.561,3.412 -0.195,0.693 -0.635,1.754 -0.635,1.754 C 25.378,23.838 16,29 16,29 16,29 6.6218,23.838 3.217,15.877 2.9189,15.254 2.582,14.123 2.582,14.123 2.2597,13.034 2.067,11.898 2.0195,10.725 2.0126,10.881 2,11.035 2,11.193 c 0,1.364 0.2111,2.676 0.582,3.93 0,0 0.3369,1.131 0.6348,1.754 3.405,7.961 12.783,13.123 12.783,13.123 0,0 9.378,-5.162 12.783,-13.123 3.405,-7.961 0.44,-1.061 0.635,-1.754 0.354,-1.259 0.582,-2.566 0.582,-3.93 0,-0.162 -0.014,-0.322 -0.021,-0.482 z" />
        </g>
      </g>
    </g>
  </g>
</svg>
